X:784
T:Leaving Stornoway
C:Joe Buchanan's Scottish Tome - Page 535.3
I:535 3
Z:Carl Allison
R:Slow Air
L:1/4
M:3/4
K:A
(e2 B) | (c2 A) | F3 | (E2 A) | (B2 B) | (B2 c) | B3- | B2 E |
(A2 B) | (c2 f) | e3 | (c2 E) | (A2 c) | (e2 f) | e3- | e2 c |
(d2 e) | (f2 e) | e3 | (c2 e) | (f2 A) | (F A2) | B3 (Bcd) |
d<f e | (c2 A) | F3 | (E2 A) | (B2 A) | (c2 B) | A3- | A2 : |
